icons/actions/22/align-vertical-bottom.svg

<svg xmlns="http://www.w3.org/2000/svg" viewBox="0 0 22 22">
  <defs id="defs3051">
    <style type="text/css" id="current-color-scheme">
      .ColorScheme-Text {
        color:#4d4d4d;
      }
      </style>
  </defs>
 <path 
     style="fill:currentColor;fill-opacity:1;stroke:none" 
	d="m13 3v13h6v-13h-6m1 1h4v11h-4v-11m-11 6v6h6v-6h-6m1 1h4v4h-4v-4m-1 7v1h16v-1h-16"
	 class="ColorScheme-Text"
     />
</svg>

<?xml version="1.0"?>
<!-- Created with Inkscape (http://www.inkscape.org/) -->
<svg xmlns:dc="http://purl.org/dc/elements/1.1/" xmlns:cc="http://creativecommons.org/ns#" xmlns:rdf="http://www.w3.org/1999/02/22-rdf-syntax-ns#" xmlns:svg="http://www.w3.org/2000/svg" xmlns="http://www.w3.org/2000/svg" xmlns:sodipodi="http://sodipodi.sourceforge.net/DTD/sodipodi-0.dtd" xmlns:inkscape="http://www.inkscape.org/namespaces/inkscape" width="22" height="22" id="svg3760" version="1.1" inkscape:version="0.48.4 r9939" sodipodi:docname="align-vertical-bottom.svg">
  <defs id="defs3762">
    <style type="text/css" id="current-color-scheme">
      .ColorScheme-Text {
        color:#4d4d4d;
      }
      .ColorScheme-Background {
        color:#eff0f1;
      }
      .ColorScheme-Highlight {
        color:#3daee9;
      }
      .ColorScheme-ViewText {
        color:#31363b;
      }
      .ColorScheme-ViewBackground {
        color:#fcfcfc;
      }
      .ColorScheme-ViewHover {
        color:#93cee9;
      }
      .ColorScheme-ViewFocus{
        color:#3daee9;
      }
      .ColorScheme-ButtonText {
        color:#31363b;
      }
      .ColorScheme-ButtonBackground {
        color:#eff0f1;
      }
      .ColorScheme-ButtonHover {
        color:#93cee9;
      }
      .ColorScheme-ButtonFocus{
        color:#3daee9;
      }
      </style>
  </defs>
  <sodipodi:namedview id="base" pagecolor="#ffffff" bordercolor="#666666" borderopacity="1.0" inkscape:pageopacity="0.0" inkscape:pageshadow="2" inkscape:zoom="23.069359" inkscape:cx="0.028285696" inkscape:cy="12.683252" inkscape:document-units="px" inkscape:current-layer="layer1" showgrid="true" fit-margin-top="0" fit-margin-left="0" fit-margin-right="0" fit-margin-bottom="0" inkscape:window-width="1864" inkscape:window-height="1060" inkscape:window-x="53" inkscape:window-y="-5" inkscape:window-maximized="1" inkscape:showpageshadow="false" showguides="true">
    <sodipodi:guide position="4.1796875e-06,21.999997" orientation="22,0" id="guide4116"/>
    <sodipodi:guide position="4.1796875e-06,-2.6953124e-06" orientation="0,22" id="guide4118"/>
    <sodipodi:guide position="22.000004,-2.6953124e-06" orientation="-22,0" id="guide4120"/>
    <sodipodi:guide position="22.000004,21.999997" orientation="0,-22" id="guide4122"/>
    <sodipodi:guide position="2.0000042,19.999997" orientation="18,0" id="guide4124"/>
    <sodipodi:guide position="20.000004,1.9999973" orientation="-18,0" id="guide4128"/>
    <sodipodi:guide position="20.000004,19.999997" orientation="0,-18" id="guide4130"/>
    <sodipodi:guide position="3.0000042,18.999997" orientation="16,0" id="guide4132"/>
    <sodipodi:guide position="3.0000042,2.9999973" orientation="0,16" id="guide4134"/>
    <sodipodi:guide position="19.000004,2.9999973" orientation="-16,0" id="guide4136"/>
    <sodipodi:guide position="19.000004,18.999997" orientation="0,-16" id="guide4138"/>
    <inkscape:grid type="xygrid" id="grid4140"/>
  </sodipodi:namedview>
  <metadata id="metadata3765">
    <rdf:RDF>
      <cc:Work rdf:about="">
        <dc:format>image/svg+xml</dc:format>
        <dc:type rdf:resource="http://purl.org/dc/dcmitype/StillImage"/>
        <dc:title/>
      </cc:Work>
    </rdf:RDF>
  </metadata>
  <g inkscape:label="Capa 1" inkscape:groupmode="layer" id="layer1" transform="translate(-553.72253,-583.11926)">
    <path style="opacity:1;fill:currentColor;fill-opacity:1;stroke:none" d="M 13 3 L 13 16 L 19 16 L 19 3 L 13 3 z M 14 4 L 18 4 L 18 15 L 14 15 L 14 4 z M 3 10 L 3 16 L 9 16 L 9 10 L 3 10 z M 4 11 L 8 11 L 8 15 L 4 15 L 4 11 z M 3 18 L 3 19 L 19 19 L 19 18 L 3 18 z " transform="translate(553.72253,583.11926)" id="rect4295" class="ColorScheme-Text"/>
  </g>
</svg>
